IconSet/boxicons.iconjar/icons/bx-sort-alt-2.svg

<svg xmlns="http://www.w3.org/2000/svg" width="24" height="24" viewBox="0 0 24 24"><path d="M7 20h2V8h3L8 4 4 8h3zm13-4h-3V4h-2v12h-3l4 4z"/></svg>

<svg xmlns="http://www.w3.org/2000/svg" width="24" height="24" viewBox="0 0 24 24"><path d="M7 20L9 20 9 8 12 8 8 4 4 8 7 8zM20 16L17 16 17 4 15 4 15 16 12 16 16 20z"/></svg>
